X: 3727
T: Bindi's Lament
R: waltz
M: 3/4
K: Dminor
|:D/E/|F>G F E<C E|D3 D2 F/G/|A d d c<G B|A3 A2 d/e/|
f>g f e<c c|d F G A2 D/E/|F>G F E<C E|D3 D2:|
|:F/G/|A d d f/e/ d f|e c d e2 d/ c/|A d d f/e/ d f|e e f g2 f/g/|
a f/g/ a g/f/ e f/e/|d d c A2 D/ E/|F>G F E<C E|D3 D2:|

